X: 20213
T: Joe Bane's
R: barndance
M: 4/4
K: Gmajor
|:ge|d2GAB2AG|d2G2G2ge|d2GAB2AG|B2A2A2Bc|
d2GAB2AG|B2d2g2ge|d2de dBAc|B2G2G2:|
|:d2|g2gf gedg|e2ed efgd|d2de dBGA|B2A2A2d2|
g2gf gedg|e2ed efge|d2de dBAc|B2G2G2:|

